**kern	**kern	**dynam
*part1	*part1	*part1
*staff2	*staff1	*
*I"Piano	*	*
*clefF4	*clefG2	*
*k[]	*k[]	*
=1	=1	=1
*^	*^	*
!	!	!	!	!LO:DY:a
[8EEyy [8E	2EEyy 2E	[8eyy [8g#X [8ee	2eyy 2g# 2ee	>
4.EE_ 4.E_	.	4.e_ 4.g#X_ 4.ee_	.	.
*v	*v	*	*	*
*	*v	*v	*
=	=	=
4EE] 4E]	4e] 4g#] 4ee]	]
!	!	!LO:DY:a
4CC 4C	4cc 4ee	???
=	=	=
*	*^	*
[2GG [2G	4b 4ee	4gn	.
.	4a 4cc	4c	.
=	=	=	=
2GG] 2G]	2b 2dd	2g	.
=	=	=	=
[2GG [2G	4a 4cc	4g	.
.	4g 4a	4c	.
*	*v	*v	*
=	=	=
2GG] 2G]	2g 2b	.
=	=	=
*^	*	*
4G	[2GG	4g 4b	.
!	!	!LO:TX:a:i:t=cresc. sempre	!
!	!	!LO:TX:a:i:t=cresc sempre	!
4C	.	4g 4a 4cc	.
=	=	=	=
2G	2GG]	2g 2b 2dd	.
*v	*v	*	*
=	=	=
*-	*-	*-
!!!system-decoration: {(s1,s2)}
